src/assets/icons/assessment.svg

<?xml version="1.0" encoding="UTF-8"?>
<svg xmlns="http://www.w3.org/2000/svg" id="Layer_1" data-name="Layer 1" viewBox="0 0 24 24">
  <path d="m11,23.5c0,.276-.224.5-.5.5h-6c-2.481,0-4.5-2.019-4.5-4.5V4.501C0,2.02,2.018,0,4.5,0h11c2.481,0,4.5,2.018,4.5,4.499v3c0,.276-.223.5-.5.5s-.5-.224-.5-.5v-3c0-1.93-1.571-3.5-3.5-3.5H4.5c-1.93,0-3.5,1.571-3.5,3.501v14.999c0,1.93,1.571,3.5,3.5,3.5h6c.276,0,.5.224.5.5Zm12.854.354c-.098.098-.226.146-.354.146s-.256-.049-.354-.146l-3.423-3.423c-1.137.976-2.611,1.569-4.224,1.569-3.584,0-6.5-2.916-6.5-6.5s2.916-6.5,6.5-6.5,6.5,2.916,6.5,6.5c0,1.612-.594,3.086-1.569,4.224l3.423,3.423c.195.195.195.512,0,.707Zm-2.854-8.354c0-3.032-2.467-5.5-5.5-5.5s-5.5,2.468-5.5,5.5,2.467,5.5,5.5,5.5,5.5-2.468,5.5-5.5ZM6.5,5h-2c-.276,0-.5.224-.5.5s.224.5.5.5h2c.276,0,.5-.224.5-.5s-.224-.5-.5-.5Zm0,10h-2c-.276,0-.5.224-.5.5s.224.5.5.5h2c.276,0,.5-.224.5-.5s-.224-.5-.5-.5Zm3-10c-.276,0-.5.224-.5.5s.224.5.5.5h6c.276,0,.5-.224.5-.5s-.224-.5-.5-.5h-6Zm-3,5h-2c-.276,0-.5.224-.5.5s.224.5.5.5h2c.276,0,.5-.224.5-.5s-.224-.5-.5-.5Zm11.643,4.131l-2.706,2.618c-.337.33-.886.334-1.223.004l-1.363-1.345c-.196-.194-.513-.192-.707.004-.194.197-.192.514.005.707l1.364,1.347c.362.354.837.531,1.312.531s.951-.178,1.311-.533l2.703-2.614c.198-.192.204-.509.012-.707-.191-.198-.508-.202-.707-.012Z"/>
</svg>

<svg width="24" height="24" viewBox="0 0 24 24" fill="none" xmlns="http://www.w3.org/2000/svg">
<path d="M11 23.5C11 23.776 10.776 24 10.5 24H4.5C2.019 24 0 21.981 0 19.5V4.501C0 2.02 2.018 0 4.5 0H15.5C17.981 0 20 2.018 20 4.499V7.499C20 7.775 19.777 7.999 19.5 7.999C19.223 7.999 19 7.775 19 7.499V4.499C19 2.569 17.429 0.999 15.5 0.999H4.5C2.57 0.999 1 2.57 1 4.5V19.499C1 21.429 2.571 22.999 4.5 22.999H10.5C10.776 22.999 11 23.224 11 23.5ZM23.854 23.854C23.756 23.952 23.628 24 23.5 24C23.372 24 23.244 23.951 23.146 23.854L19.723 20.431C18.586 21.407 17.112 22 15.499 22C11.915 22 8.999 19.084 8.999 15.5C8.999 11.916 11.915 9 15.499 9C19.083 9 21.999 11.916 21.999 15.5C21.999 17.112 21.405 18.586 20.43 19.724L23.853 23.147C24.048 23.342 24.049 23.659 23.854 23.854ZM21 15.5C21 12.468 18.533 10 15.5 10C12.467 10 10 12.468 10 15.5C10 18.532 12.467 21 15.5 21C18.533 21 21 18.532 21 15.5ZM6.5 5H4.5C4.224 5 4 5.224 4 5.5C4 5.776 4.224 6 4.5 6H6.5C6.776 6 7 5.776 7 5.5C7 5.224 6.776 5 6.5 5ZM6.5 15H4.5C4.224 15 4 15.224 4 15.5C4 15.776 4.224 16 4.5 16H6.5C6.776 16 7 15.776 7 15.5C7 15.224 6.776 15 6.5 15ZM9.5 5C9.224 5 9 5.224 9 5.5C9 5.776 9.224 6 9.5 6H15.5C15.776 6 16 5.776 16 5.5C16 5.224 15.776 5 15.5 5H9.5ZM6.5 10H4.5C4.224 10 4 10.224 4 10.5C4 10.776 4.224 11 4.5 11H6.5C6.776 11 7 10.776 7 10.5C7 10.224 6.776 10 6.5 10ZM18.143 14.131L15.437 16.749C15.1 17.079 14.551 17.083 14.214 16.753L12.851 15.408C12.655 15.214 12.338 15.216 12.144 15.412C11.95 15.609 11.952 15.926 12.149 16.119L13.513 17.466C13.875 17.82 14.35 17.997 14.825 17.997C15.3 17.997 15.776 17.819 16.136 17.464L18.839 14.85C19.037 14.658 19.043 14.341 18.851 14.143C18.66 13.945 18.342 13.941 18.143 14.131Z" fill="#787891"/>
</svg>
